X:1
T:Title
%%score { ( 1 4 ) | ( 2 3 ) }
L:1/8
M:6/8
K:G
V:1 treble nm="Grand Piano"
V:4 treble 
V:2 bass 
V:3 bass 
V:1
 z3 z2[Q:1/4=100] D | [B,G]2 [DA] [GB]2 [Ac] | [Bd]3 [GB]2 [DB] | [CA]^G[CA] [Ec]2 [DB] | %4
[M:5/8] [B,G]-[B,G]- [B,G]3 |[M:1/8] D |[M:3/4] [B,G]2 [DA] [GB]2 [Ac] | [Bd]3 [GB]2 [D=FB] | %8
 [DFA]2 [Fd] [A,^CE]2 [CA] |[M:5/8] D-D- D3[K:bass] |[M:6/4][Q:1/4=126] z2[K:treble] B4- B2 B4- | %11
 B2 d4 z2 A4 | z2 G4- G2 G4- | G2 B4 z2 F4 | z2 E4 z2 G4 | z2 B4 z2 d4 | z2 A4 z2 F4 | z4 A2- A6 | %18
 z2 B4- B2 B4- | B2 d4 z2 A4 | z2 G4- G2 G4- | G2 B4 z2 F4 | z2 E4 z2 G4 | z2 B4 z2 d4 | %24
 z2 G4- G2 A4-[Q:1/4=124][Q:1/4=122][Q:1/4=120][Q:1/4=119][Q:1/4=117][Q:1/4=115][Q:1/4=113][Q:1/4=111][Q:1/4=109][Q:1/4=107][Q:1/4=106][Q:1/4=104][Q:1/4=102][Q:1/4=100][Q:1/4=98][Q:1/4=96] | %25
[M:5/4] A2 G2- G6- | G2 z2 z2 z4 |] %27
V:2
 z3 z2 D, | G,,2 D, G,2 D, | G,,2 D, G,2 D, | z B,D, F,2 D, |[M:5/8] G,,2 D, G,2 |[M:1/8] D, | %6
[M:3/4] G,,2 D, G,2 D, | G,,2 D, G,2 ^G, | A,2 A,, G,2 [A,,G,] |[M:5/8] [D,F,]2 A,, D,,2 | %10
[M:6/4] .D,4 [G,D]2 .[G,D]4 [^G,D]2 | .[^G,D]4 [A,D]2 .[A,DF]4 C2 | .^D,4 B,2 .B,4 B,2 | %13
 .B,4 [A,B,]2 .[A,B,]4 [A,B,]2 | .[A,B,^D]4 G,2 .[A,=D]4 G,2 | .[D,F,D]4[K:treble] D2 .[A,DG]4 D2 | %16
 .[G,DG]4[K:bass] G,2 .[G,^C]4 G,2 | [G,^C]2 .=C4 z6 | .[D,F,C]4 [G,D]2 .[G,D]4 [^G,D]2 | %19
 .[^G,D]4 [A,D]2 .[A,DF]4 C2 | .^D,4 B,2 .B,4 B,2 | .B,4 [A,B,]2 .[A,B,]4 [A,B,]2 | %22
 .[A,B,^D]4 G,2 .[A,=D]4 G,2 | .[D,F,D]4[K:treble] D2 .[A,DG]4[K:bass] D2 | .[C,C]4 B,2 .B,4 C2 | %25
[M:5/4] C2 z2 B,2 B,2 B,2- | B,2 z2 z2 z4 |] %27
V:3
 x6 | x6 | x6 | .D,,3 z3 |[M:5/8] x5 |[M:1/8] x |[M:3/4] x6 | x6 | x6 |[M:5/8] x5 | %10
[M:6/4] z2 G,,4- G,,2 ^G,,4- | G,,2 A,,4- A,,2 D,4 | z2 E,4- E,2 B,,4- | B,,2 ^D,4- D,2 B,,4- | %14
 B,,2 C,4- C,2 B,,4 | z2 G,4[K:treble] z2 B,4 | z2[K:bass] E,4- E,2 A,,4- | A,,2 [D,F,]4- [D,F,]6 | %18
 z2 G,,4 z2 ^G,,4 | z2 A,,4- A,,2 D,4 | z2 E,4- E,2 B,,4- | B,,2 ^D,4- D,2 B,,4 | %22
 z2 C,4- C,2 B,,4 | z2 G,4[K:treble] z2[K:bass] B,4 | z2 D,4- D,2 D,4- | %25
[M:5/4] D,2 [G,,G,]2- [G,,G,]6- | [G,,G,]2 z2 z2 z4 |] %27
V:4
 x6 | x6 | x6 | x6 |[M:5/8] x5 |[M:1/8] x |[M:3/4] x6 | x6 | x6 |[M:5/8] z2 A,[K:bass] D,2 | %10
[M:6/4] .D4[K:treble] G2 .G4 =F2 | .=F4 ^F2 .A4 F2 | .[B,FB]4 E2 .E4 E2 | .E4 F2 .F4 ^D2 | %14
 .G4 C2 .F4 D2 | .A4 G2 .c4 G2 | .B4 ^C2 .E4 C2 | G2 .A4 G2 E2 C2 | .D4 G2 .G4 =F2 | %19
 .=F4 ^F2 .A4 F2 | .[B,FB]4 E2 .E4 E2 | .E4 F2 .F4 ^D2 | .G4 C2 .F4 D2 | .A4 G2 .c4 G2 | %24
 .[Ge]4 D2 .D4 F2 |[M:5/4] F2 z2 D2 D2 D2- | D2 z2 z2 z4 |] %27

